X:54
T:Dusty Miller, The
R:hop jig
S:Jonas Lindholm
H:See also #35
Z:id:hn-slipjig-54
M:9/8
K:G
B2d d2A BAG|E2A A2B cBA|B2d d2A BAG|D2G G2A BAG:|
|:B2d e2f gfg|a2A A2B cBA|B2d e2f g2a|g2e d2c BAG:|
<end>
<start>
